X:107
T: Wie schoen ist das laendliche Leben,
N: D0161
O: Europa, Mitteleuropa, Deutschland, Untermainfranken, Spessart
N: moduliertin die Dominanttonart; Pause in der zweiten Zeile rhythmisch
N: korrigiert; Inzipit = entfernte Variante zum Lied
R: Bauern - Lied
M: 6/8
L: 1/16
K: Bb
F2 | F2G2A2B2c2d2 | e6d4
d2 | d3cc2e2A2A2 | B6z4
F2 | F2G2A2B2c2d2 | e6d4
d2 | d3cc2e2A2A2 | B6z4
d2 | c2d2c2c2d2c2 | c4f2f2=e2
d2 | c2d2c2B2AGF2 | A4c2e2d2
c2 | B3BB2B2c2d2 | e6d4
d2 | d3cc2e2A2A2 | B6z4

@@@ Tune index: 2629
